src/assets/foodIcons/burger-icon.svg

<svg width="32" class="iconPrimary" height="40" viewBox="0 0 32 40" fill="none" xmlns="http://www.w3.org/2000/svg">
<path d="M16.8572 15.3042C16.8886 15.3368 16.9265 15.3628 16.9687 15.3806C17.011 15.3984 17.0565 15.4076 17.1026 15.4077C17.1392 15.4074 17.1755 15.4016 17.2102 15.3905C17.2717 15.3714 17.3261 15.3355 17.3669 15.2873C17.4078 15.239 17.4334 15.1804 17.4406 15.1184C17.577 14.0377 17.5504 13.9606 17.5292 13.898C17.4605 13.7111 17.3189 13.5577 17.1346 13.4705C16.9504 13.3832 16.7382 13.369 16.5434 13.431C16.3485 13.4929 16.1864 13.626 16.0917 13.8019C15.997 13.9779 15.9772 14.1826 16.0365 14.3724C16.0576 14.435 16.0842 14.5128 16.8572 15.3042ZM16.5075 14.0008C16.5255 13.9657 16.5506 13.9345 16.5813 13.9089C16.6119 13.8834 16.6476 13.864 16.6861 13.8518C16.7609 13.8282 16.8421 13.8329 16.9134 13.8651C16.9847 13.8973 17.0406 13.9545 17.0698 14.0252C17.0698 14.0963 17.0548 14.3289 17.0017 14.779C16.6827 14.4495 16.5245 14.2703 16.4843 14.211C16.4649 14.1406 16.4731 14.0657 16.5075 14.0008Z" fill="currentColor"/>
<path d="M7.6443 13.8301C7.67174 13.8378 7.70028 13.8411 7.72882 13.84C7.84197 13.84 8.10984 13.809 8.89779 13.6654C8.9608 13.6533 9.019 13.6243 9.06569 13.5817C9.11238 13.539 9.14566 13.4845 9.16169 13.4244C9.17772 13.3642 9.17585 13.301 9.15629 13.2418C9.13673 13.1827 9.10029 13.1301 9.05115 13.0901C8.18346 12.3962 8.10166 12.3758 8.03623 12.3593C7.837 12.316 7.62819 12.3494 7.454 12.4524C7.27981 12.5554 7.15391 12.7199 7.10298 12.9111C7.05204 13.1022 7.08005 13.305 7.18109 13.4766C7.28213 13.6481 7.44826 13.7749 7.6443 13.8301ZM7.54342 13.0169C7.56062 12.9528 7.59932 12.8961 7.65347 12.8555C7.70762 12.815 7.77416 12.7929 7.84265 12.7929C7.86234 12.7929 7.88199 12.7949 7.90127 12.7988C7.96466 12.8351 8.15824 12.9748 8.52086 13.2601C8.06008 13.3405 7.82152 13.3721 7.74722 13.3747C7.67257 13.3513 7.60996 13.3013 7.5721 13.2348C7.53424 13.1684 7.52399 13.0904 7.54342 13.0169Z" fill="currentColor"/>
<path d="M7.49933 19.1077C7.62513 19.1077 7.74906 19.0783 7.86059 19.022C7.92125 18.9917 7.99691 18.9561 8.67853 18.0883C8.71715 18.0386 8.74044 17.9793 8.7457 17.9173C8.75096 17.8554 8.73798 17.7932 8.70825 17.7381C8.67852 17.683 8.63327 17.6371 8.57771 17.6058C8.52216 17.5745 8.45857 17.559 8.39429 17.5611C7.26894 17.6066 7.19465 17.6441 7.13398 17.6745C6.97805 17.7532 6.85395 17.8802 6.78155 18.0352C6.70915 18.1902 6.69264 18.3642 6.73466 18.5294C6.77668 18.6945 6.8748 18.8413 7.01332 18.9461C7.15183 19.051 7.32273 19.1079 7.49865 19.1077H7.49933ZM7.20283 18.2583C7.22578 18.1887 7.27427 18.1296 7.33915 18.0922C7.4114 18.0784 7.65133 18.0573 8.1196 18.0349C7.83264 18.3927 7.67655 18.5713 7.62338 18.6207C7.56905 18.6442 7.50883 18.6521 7.45 18.6433C7.39117 18.6345 7.33622 18.6094 7.29178 18.5711C7.24734 18.5328 7.2153 18.4829 7.19952 18.4274C7.18374 18.3719 7.18488 18.3132 7.20283 18.2583Z" fill="currentColor"/>
<path d="M24.4715 19.5585C24.5382 19.6819 24.6386 19.7852 24.7618 19.8572C24.885 19.9292 25.0262 19.9672 25.1702 19.9671C25.2961 19.9671 25.4201 19.9375 25.5314 19.8807C25.5914 19.8504 25.6678 19.8149 26.3494 18.9477C26.388 18.8979 26.4113 18.8387 26.4166 18.7767C26.4218 18.7147 26.4088 18.6526 26.3791 18.5975C26.3494 18.5423 26.3041 18.4965 26.2486 18.4651C26.193 18.4338 26.1294 18.4183 26.0652 18.4205C24.9405 18.4653 24.8655 18.5035 24.8048 18.5338C24.6203 18.6272 24.4815 18.7874 24.419 18.9795C24.3566 19.1716 24.3754 19.3799 24.4715 19.5585ZM25.01 18.9516C25.0823 18.9378 25.3222 18.9167 25.7905 18.8943C25.5035 19.2521 25.3474 19.43 25.2942 19.4801C25.223 19.5083 25.1434 19.5097 25.0712 19.4841C24.9989 19.4585 24.9391 19.4078 24.9035 19.3418C24.8679 19.2758 24.8591 19.1994 24.8788 19.1274C24.8985 19.0555 24.9453 18.9932 25.01 18.9529V18.9516Z" fill="currentColor"/>
<path d="M12.9013 16.5596C12.8574 16.6054 12.8282 16.6624 12.817 16.7239C12.8059 16.7854 12.8134 16.8487 12.8385 16.9062C13.2693 17.9117 13.332 17.9671 13.3838 18.0113C13.5281 18.1387 13.7166 18.2093 13.9121 18.2089H13.9509C14.1056 18.2014 14.2545 18.1499 14.379 18.0609C14.5035 17.9718 14.598 17.8492 14.6507 17.7084C14.7033 17.5676 14.7118 17.4149 14.675 17.2695C14.6381 17.1241 14.5577 16.9924 14.4438 16.891C14.394 16.8469 14.3313 16.7922 13.2557 16.4699C13.194 16.4501 13.1276 16.448 13.0647 16.4639C13.0018 16.4798 12.945 16.5131 12.9013 16.5596ZM14.1323 17.2422C14.1736 17.2832 14.2019 17.3349 14.2137 17.391C14.2254 17.4472 14.2202 17.5054 14.1986 17.5587C14.1771 17.6121 14.14 17.6582 14.092 17.6918C14.0439 17.7253 13.9869 17.7447 13.9278 17.7477C13.8522 17.7516 13.7778 17.7281 13.7192 17.6818C13.681 17.6211 13.5781 17.4103 13.3954 16.9932C13.8398 17.1309 14.0661 17.2106 14.1323 17.2422Z" fill="currentColor"/>
<path d="M12.4894 12.7658H12.4928C12.557 12.7661 12.62 12.7485 12.6742 12.7153C12.7285 12.682 12.7717 12.6344 12.7988 12.578C13.2875 11.5975 13.2882 11.5158 13.2889 11.4506C13.2909 11.2491 13.2101 11.0551 13.0643 10.9112C12.9185 10.7672 12.7196 10.6851 12.5112 10.6829H12.5037C12.2967 10.6829 12.098 10.7618 11.9508 10.9026C11.8037 11.0434 11.7199 11.2346 11.7178 11.4347C11.7178 11.5006 11.7178 11.5823 12.184 12.5721C12.2102 12.6294 12.2529 12.6782 12.3071 12.7126C12.3613 12.747 12.4246 12.7655 12.4894 12.7658ZM12.5037 11.1461C12.5823 11.147 12.6576 11.1768 12.7143 11.2294C12.771 11.2821 12.8049 11.3536 12.809 11.4295C12.7872 11.4954 12.6938 11.7128 12.4935 12.122C12.3019 11.7089 12.2133 11.4921 12.1929 11.4235C12.1986 11.3478 12.2339 11.277 12.2916 11.2255C12.3493 11.1739 12.4251 11.1456 12.5037 11.1461Z" fill="currentColor"/>
<path d="M23.8077 14.9345H23.8111C23.8751 14.9349 23.9378 14.9177 23.992 14.8849C24.0462 14.8522 24.0896 14.8051 24.1172 14.7494C24.6059 13.7682 24.6066 13.6864 24.6073 13.6212C24.6093 13.4198 24.5285 13.2258 24.3827 13.0818C24.2369 12.9379 24.0379 12.8558 23.8295 12.8535H23.8214C23.6145 12.8538 23.4161 12.9329 23.2691 13.0737C23.1222 13.2144 23.0385 13.4054 23.0361 13.6054C23.0361 13.6713 23.0361 13.753 23.5024 14.7428C23.5288 14.7997 23.5717 14.8481 23.6258 14.8821C23.68 14.9161 23.7431 14.9343 23.8077 14.9345ZM23.8248 13.3148C23.9034 13.3157 23.9787 13.3455 24.0354 13.3981C24.0921 13.4507 24.126 13.5223 24.1301 13.5981C24.1083 13.664 24.0149 13.8815 23.8145 14.2907C23.623 13.8775 23.5337 13.6607 23.5139 13.5922C23.5197 13.5165 23.5549 13.4457 23.6127 13.3941C23.6704 13.3426 23.7462 13.3143 23.8248 13.3148Z" fill="currentColor"/>
<path d="M19.9648 17.9815C20.0209 18.0121 20.0848 18.0266 20.1491 18.0234C20.2134 18.0203 20.2754 17.9996 20.3281 17.9638C21.2476 17.3351 21.2891 17.2639 21.3225 17.2073C21.4255 17.0321 21.4522 16.8245 21.3969 16.6302C21.3415 16.436 21.2086 16.2709 21.0274 16.1714C20.9376 16.122 20.8387 16.0903 20.7362 16.078C20.6338 16.0656 20.5298 16.073 20.4303 16.0995C20.3308 16.1261 20.2376 16.1714 20.1562 16.2328C20.0748 16.2942 20.0068 16.3705 19.9559 16.4574C19.9225 16.514 19.8809 16.5852 19.7937 17.6705C19.7882 17.7328 19.8015 17.7952 19.8318 17.8504C19.8622 17.9056 19.9083 17.9511 19.9648 17.9815ZM20.3805 16.6695C20.4238 16.6067 20.4901 16.562 20.5661 16.5445C20.6421 16.527 20.7221 16.538 20.79 16.5753C20.8579 16.6125 20.9087 16.6733 20.9322 16.7453C20.9556 16.8174 20.9499 16.8953 20.9163 16.9634C20.8631 17.0129 20.6736 17.1572 20.2933 17.4214C20.3335 16.9681 20.3635 16.7368 20.3805 16.6676V16.6695Z" fill="currentColor"/>
<path d="M17.7778 10.9498C17.8283 10.9933 17.8917 11.0473 18.9727 11.3517C19.0347 11.3692 19.1005 11.3693 19.1625 11.352C19.2245 11.3348 19.2802 11.3008 19.323 11.2542C19.3659 11.2075 19.3942 11.15 19.4045 11.0884C19.4149 11.0269 19.407 10.9637 19.3817 10.9063C18.9339 9.90795 18.8705 9.85194 18.8194 9.81043C18.6632 9.67705 18.4587 9.60907 18.2508 9.62143C18.0428 9.63378 17.8484 9.72547 17.7104 9.87632C17.6419 9.95109 17.5893 10.0382 17.5556 10.1326C17.522 10.227 17.5079 10.3269 17.5141 10.4266C17.5204 10.5262 17.5469 10.6237 17.5922 10.7135C17.6374 10.8033 17.7005 10.8836 17.7778 10.9498ZM18.0655 10.1827C18.1176 10.1259 18.1901 10.0903 18.2683 10.0832C18.3465 10.0761 18.4246 10.098 18.4867 10.1445C18.5263 10.2051 18.6333 10.414 18.8228 10.8285C18.3743 10.6967 18.1466 10.6216 18.0798 10.592C18.0241 10.5383 17.9915 10.4661 17.9889 10.3901C17.9862 10.3141 18.0136 10.2399 18.0655 10.1827Z" fill="currentColor"/>
<path d="M28.8209 29.9306H28.3328C28.842 29.4179 29.2871 28.7932 29.2871 27.7876C29.2872 27.5989 29.2715 27.4105 29.2401 27.2242C30.3463 27.1069 31 26.0091 31 24.9449C31 23.7469 30.195 22.9106 29.0431 22.9106H28.6239V21.7067C29.0172 21.5607 29.3668 21.3222 29.6409 21.0128C29.8759 20.7466 30.0481 20.4341 30.1455 20.097C30.243 19.76 30.2634 19.4064 30.2052 19.061C29.4916 14.8271 26.7365 11.1026 22.822 9.06118L23.2589 7.89942L27.7194 9.51323C27.7636 9.52946 27.8119 9.53256 27.858 9.52212C27.9041 9.51169 27.9459 9.4882 27.9781 9.45466C28.0103 9.42112 28.0314 9.37906 28.0388 9.33385C28.0461 9.28864 28.0393 9.24234 28.0193 9.20088L27.3302 7.75643L28.812 7.09746C28.8548 7.07825 28.8907 7.04721 28.9152 7.00827C28.9398 6.96933 28.9518 6.92423 28.9498 6.87868C28.9479 6.83312 28.932 6.78915 28.9042 6.75233C28.8764 6.7155 28.8379 6.68747 28.7936 6.67177L24.0918 5.01382C24.0322 4.99296 23.9665 4.99581 23.9091 5.02172C23.8806 5.03462 23.855 5.05294 23.834 5.07558C23.8129 5.09822 23.7967 5.12472 23.7864 5.15352L22.8935 7.52579L22.3953 8.84833C20.3783 7.88211 18.155 7.38668 15.904 7.40185C13.653 7.41702 11.4371 7.94236 9.4342 8.93567C7.43132 9.92898 5.69734 11.3626 4.37152 13.1213C3.04571 14.88 2.16502 16.9148 1.80022 19.0623C1.74196 19.4074 1.76215 19.7607 1.85938 20.0975C1.95661 20.4344 2.12854 20.7467 2.36323 21.0128C2.63542 21.3225 2.98303 21.5619 3.37475 21.7093V22.9106H3.18867C2.27803 22.9106 1.63936 23.1953 1.28969 23.7574C1 24.2233 1 24.765 1 25.0885C1 26.2786 1.65094 27.0437 2.76471 27.2038C2.73088 27.3967 2.71378 27.592 2.71358 27.7876C2.70672 28.579 3.00794 29.344 3.55743 29.9306H3.18117C2.76512 29.9323 2.36669 30.0932 2.07293 30.3781C1.77918 30.6629 1.61399 31.0486 1.61346 31.4508V31.9404C1.61454 32.7517 1.94841 33.5294 2.54182 34.1029C3.13524 34.6765 3.93975 34.9991 4.77888 35H27.2286C28.0677 34.9991 28.8721 34.6765 29.4654 34.1029C30.0587 33.5293 30.3925 32.7516 30.3934 31.9404V31.4508C30.3928 31.0478 30.227 30.6614 29.9322 30.3764C29.6374 30.0914 29.2378 29.9311 28.8209 29.9306ZM24.1532 5.52715L28.0868 6.91097L26.9137 7.43815C26.8852 7.45084 26.8596 7.46885 26.8383 7.49113C26.8171 7.51341 26.8005 7.53953 26.7897 7.56799C26.7789 7.59645 26.774 7.62669 26.7752 7.65699C26.7765 7.68729 26.784 7.71705 26.7972 7.74456L27.3424 8.88853L23.4252 7.46648L24.1532 5.52715ZM29.846 24.9449C29.846 25.6447 29.433 26.1152 29.0478 26.1152C28.9794 26.1157 28.9111 26.1111 28.8434 26.1013C28.4435 25.4 27.8058 24.8533 27.0378 24.5534C26.9689 24.5264 26.8953 24.5126 26.821 24.5126C25.5184 24.5126 25.0181 25.0213 24.6167 25.4299C24.2397 25.8127 23.9419 26.1152 22.7763 26.1152C21.7627 26.1152 21.0866 25.8654 20.4472 25.5597L21.9468 24.0309H29.0478C29.7424 24.0309 29.846 24.6035 29.846 24.9449ZM17.2729 24.6813L16.609 24.0309H20.3484L19.0806 25.3238L19.0765 25.3284L18.5176 25.9004L17.2729 24.6813ZM4.53486 21.8734H27.4699V22.9106H4.53486V21.8734ZM3.24934 20.288C3.12322 20.1454 3.03071 19.978 2.97822 19.7974C2.92572 19.6168 2.9145 19.4274 2.94533 19.2422C3.28302 17.2579 4.09969 15.3784 5.32912 13.7563C6.55855 12.1342 8.16612 10.815 10.0215 9.90576C11.8768 8.99652 13.9277 8.52283 16.0078 8.5231C18.0879 8.52336 20.1387 8.99758 21.9938 9.90729L21.0239 12.4838C21.0131 12.5123 21.0083 12.5425 21.0096 12.5727C21.011 12.6029 21.0185 12.6326 21.0317 12.66C21.0449 12.6875 21.0636 12.7121 21.0867 12.7325C21.1098 12.7529 21.1369 12.7688 21.1663 12.7791C21.1925 12.7884 21.2202 12.7931 21.2481 12.7929C21.2971 12.7929 21.3448 12.7784 21.3849 12.7513C21.4251 12.7242 21.4556 12.6858 21.4724 12.6413L22.4191 10.1254C24.1626 11.0652 25.6648 12.3724 26.8143 13.95C27.9638 15.5277 28.7312 17.3354 29.0594 19.2389C29.0912 19.4244 29.0807 19.6144 29.0287 19.7956C28.9766 19.9768 28.8843 20.1448 28.7582 20.288C28.6291 20.4348 28.4686 20.5528 28.2877 20.6337C28.1068 20.7146 27.9098 20.7565 27.7105 20.7565H4.29425C4.09537 20.7563 3.89891 20.7143 3.71848 20.6334C3.53805 20.5525 3.37797 20.4346 3.24934 20.288ZM2.15875 25.0918C2.15875 24.4777 2.15875 24.0342 3.18867 24.0342H14.9806L15.6439 24.6846C15.0154 24.8559 14.5533 25.1313 14.1307 25.3864C13.477 25.7817 12.9126 26.1185 11.7361 26.1185C10.5092 26.1185 10.0219 25.7462 9.50726 25.3521C9.00491 24.9673 8.43576 24.5317 7.3479 24.5317C6.13462 24.5317 5.30305 25.074 4.63438 25.5103C4.20224 25.7923 3.82803 26.0374 3.43269 26.1033C3.36315 26.1151 3.29268 26.1211 3.22207 26.1211C2.47638 26.1152 2.15875 25.8081 2.15875 25.0885V25.0918ZM3.87233 27.7936C3.87214 27.5681 3.90542 27.3437 3.97117 27.1273C4.45921 26.9784 4.87704 26.7063 5.28328 26.4414C5.90355 26.0368 6.48974 25.6546 7.34858 25.6546C8.0302 25.6546 8.34987 25.8971 8.78815 26.2325C9.37503 26.6819 10.1057 27.2414 11.7368 27.2414C13.2439 27.2414 14.0407 26.7623 14.7428 26.3399C15.2969 26.0071 15.7829 25.7165 16.6302 25.6526L18.1113 27.1023C18.1646 27.155 18.2282 27.197 18.2984 27.2257C18.3686 27.2544 18.444 27.2694 18.5203 27.2697H18.5257C18.6035 27.2689 18.6804 27.253 18.7517 27.2228C18.823 27.1927 18.8873 27.149 18.9408 27.0944L19.6109 26.4104C20.4084 26.811 21.3265 27.2387 22.7715 27.2387C24.436 27.2387 24.9997 26.6654 25.453 26.2055C25.7734 25.8799 25.9901 25.6598 26.7038 25.6381C27.2362 25.8752 27.6632 26.2887 27.9075 26.8038C28.0552 27.1137 28.131 27.451 28.1297 27.7922C28.1297 28.4235 27.8666 28.8018 27.4127 29.242C27.1855 29.4626 26.9153 29.6375 26.6178 29.7566C26.3203 29.8757 26.0013 29.9366 25.6793 29.9359H6.32138C4.90226 29.9306 3.87233 29.0291 3.87233 27.7876V27.7936ZM29.2346 31.945C29.2341 32.4592 29.0226 32.9522 28.6465 33.3158C28.2704 33.6794 27.7605 33.8838 27.2286 33.8844H4.77684C4.24445 33.8833 3.73426 33.678 3.35838 33.3135C2.98249 32.949 2.77166 32.4551 2.7722 31.9404V31.4508C2.7722 31.3455 2.81513 31.2445 2.89169 31.1696C2.96826 31.0947 3.07227 31.052 3.18117 31.0508H28.8209C28.9306 31.0508 29.0358 31.093 29.1134 31.168C29.191 31.243 29.2346 31.3447 29.2346 31.4508V31.945Z" fill="currentColor"/>
<path d="M6.10715 14.6209C6.08396 14.5999 6.05666 14.5836 6.02685 14.5729C5.99705 14.5623 5.96534 14.5575 5.93359 14.5588C5.90184 14.5602 5.8707 14.5676 5.84198 14.5808C5.81325 14.5939 5.78754 14.6125 5.76634 14.6354C5.03633 15.4116 4.00232 17.689 3.72081 19.1513C3.70926 19.2114 3.72287 19.2735 3.75866 19.3239C3.79445 19.3743 3.84948 19.4089 3.91166 19.4201C3.92623 19.4231 3.94109 19.4244 3.95597 19.4241C4.01187 19.424 4.06595 19.4048 4.1087 19.37C4.15145 19.3352 4.18015 19.2869 4.18976 19.2336C4.44878 17.8887 5.45962 15.6423 6.12215 14.9411C6.16309 14.8963 6.18441 14.8378 6.18161 14.7781C6.17882 14.7183 6.15212 14.662 6.10715 14.6209Z" fill="currentColor"/>
<path d="M10.7315 32.9717H4.85324C4.21593 32.9717 3.75448 32.4511 3.75448 32.0999C3.75448 32.0387 3.72934 31.9801 3.6846 31.9368C3.63986 31.8936 3.57918 31.8693 3.51591 31.8693C3.45264 31.8693 3.39196 31.8936 3.34722 31.9368C3.30248 31.9801 3.27734 32.0387 3.27734 32.0999C3.27734 32.716 3.96578 33.433 4.85324 33.433H10.7315C10.7948 33.433 10.8555 33.4087 10.9002 33.3654C10.9449 33.3222 10.9701 33.2635 10.9701 33.2023C10.9701 33.1412 10.9449 33.0825 10.9002 33.0393C10.8555 32.996 10.7948 32.9717 10.7315 32.9717Z" fill="currentColor"/>
</svg>

<svg xmlns="http://www.w3.org/2000/svg" width="32" height="40" fill="none" class="iconPrimary" viewBox="0 0 32 40">
    <path fill="currentColor" d="M16.857 15.304a.336.336 0 0 0 .246.104.363.363 0 0 0 .107-.018.336.336 0 0 0 .157-.103.318.318 0 0 0 .074-.169c.136-1.08.11-1.157.088-1.22a.768.768 0 0 0-.394-.428.81.81 0 0 0-.592-.039.78.78 0 0 0-.451.37.737.737 0 0 0-.055.571c.02.063.047.14.82.932Zm-.35-1.303a.295.295 0 0 1 .18-.15.32.32 0 0 1 .226.014c.072.032.128.09.157.16 0 .071-.015.304-.068.754-.32-.33-.477-.509-.518-.568a.286.286 0 0 1 .023-.21ZM7.644 13.83a.274.274 0 0 0 .085.01c.113 0 .38-.031 1.169-.175a.346.346 0 0 0 .168-.083.32.32 0 0 0-.015-.492c-.868-.694-.95-.714-1.015-.73a.809.809 0 0 0-.582.092.762.762 0 0 0-.351.46.738.738 0 0 0 .078.565.782.782 0 0 0 .463.353Zm-.1-.813a.299.299 0 0 1 .11-.162.316.316 0 0 1 .247-.056c.064.036.257.176.62.461-.46.08-.7.112-.774.115a.306.306 0 0 1-.175-.14.29.29 0 0 1-.029-.218ZM7.5 19.108c.125 0 .25-.03.36-.086.061-.03.137-.066.819-.934a.323.323 0 0 0-.101-.482.35.35 0 0 0-.184-.045c-1.125.046-1.2.083-1.26.113a.77.77 0 0 0-.352.361.737.737 0 0 0-.047.494c.042.166.14.312.278.417.139.105.31.162.486.162Zm-.297-.85a.301.301 0 0 1 .136-.166c.072-.014.312-.035.78-.057a8.048 8.048 0 0 1-.496.586.319.319 0 0 1-.331-.05.289.289 0 0 1-.089-.313ZM24.471 19.558a.772.772 0 0 0 .29.3.809.809 0 0 0 .77.023c.06-.03.137-.066.818-.933a.324.324 0 0 0 .03-.35.335.335 0 0 0-.13-.133.35.35 0 0 0-.184-.044c-1.125.044-1.2.082-1.26.113a.768.768 0 0 0-.386.446.738.738 0 0 0 .052.578Zm.539-.606c.072-.014.312-.035.78-.058a8.222 8.222 0 0 1-.496.586.318.318 0 0 1-.223.004.306.306 0 0 1-.168-.142.29.29 0 0 1-.024-.215.3.3 0 0 1 .131-.174v-.001ZM12.901 16.56a.32.32 0 0 0-.063.346c.431 1.006.494 1.061.546 1.105a.796.796 0 0 0 .528.198h.039a.803.803 0 0 0 .428-.148.763.763 0 0 0 .272-.353.736.736 0 0 0-.207-.817c-.05-.044-.113-.099-1.188-.421a.347.347 0 0 0-.355.09Zm1.231.682a.289.289 0 0 1 .066.317.3.3 0 0 1-.106.133.315.315 0 0 1-.373-.01 7.919 7.919 0 0 1-.324-.689c.445.138.671.218.737.25ZM12.49 12.766h.003a.345.345 0 0 0 .181-.05.328.328 0 0 0 .125-.138c.489-.98.49-1.062.49-1.127a.747.747 0 0 0-.225-.54.8.8 0 0 0-.553-.228h-.007a.8.8 0 0 0-.553.22.748.748 0 0 0-.233.532c0 .066 0 .147.466 1.137a.329.329 0 0 0 .123.14.343.343 0 0 0 .182.054Zm.014-1.62c.078.001.154.03.21.083.057.053.09.125.095.2a8.213 8.213 0 0 1-.316.693 7.839 7.839 0 0 1-.3-.698.295.295 0 0 1 .099-.198.315.315 0 0 1 .212-.08ZM23.808 14.934h.003a.345.345 0 0 0 .181-.05.33.33 0 0 0 .125-.135c.489-.98.49-1.063.49-1.128a.748.748 0 0 0-.224-.54.8.8 0 0 0-.553-.227h-.009a.8.8 0 0 0-.552.22.749.749 0 0 0-.233.531c0 .066 0 .148.466 1.138.027.057.07.105.124.14a.344.344 0 0 0 .182.052Zm.017-1.62c.078.002.154.031.21.084.057.053.091.124.095.2a8.19 8.19 0 0 1-.316.693 7.697 7.697 0 0 1-.3-.699.296.296 0 0 1 .099-.198.316.316 0 0 1 .212-.08ZM19.965 17.982a.349.349 0 0 0 .363-.018c.92-.629.961-.7.995-.757a.738.738 0 0 0 .074-.577.765.765 0 0 0-.37-.459.802.802 0 0 0-1.071.286c-.034.057-.075.128-.162 1.213a.316.316 0 0 0 .038.18c.03.056.076.101.133.131Zm.416-1.313a.318.318 0 0 1 .41-.094.301.301 0 0 1 .141.17.29.29 0 0 1-.016.218c-.053.05-.242.194-.623.458.04-.453.07-.684.088-.753v.002ZM17.778 10.95c.05.043.114.097 1.195.402a.352.352 0 0 0 .35-.098.324.324 0 0 0 .059-.348c-.448-.998-.512-1.054-.563-1.096a.803.803 0 0 0-1.109.066.756.756 0 0 0-.196.55.74.74 0 0 0 .264.524Zm.288-.767a.317.317 0 0 1 .421-.038c.04.06.146.269.336.684a9.437 9.437 0 0 1-.743-.237.295.295 0 0 1-.014-.41Z"/>
    <path fill="currentColor" d="M28.82 29.93h-.487c.509-.512.954-1.137.954-2.142 0-.19-.015-.378-.047-.564 1.106-.117 1.76-1.215 1.76-2.28 0-1.197-.805-2.033-1.957-2.033h-.42v-1.204a2.537 2.537 0 0 0 1.018-.694c.235-.266.407-.579.505-.916.097-.337.117-.69.06-1.036-.714-4.234-3.47-7.958-7.384-10l.437-1.162 4.46 1.614a.245.245 0 0 0 .26-.058.224.224 0 0 0 .041-.254l-.69-1.445 1.482-.659a.236.236 0 0 0 .103-.089.224.224 0 0 0-.01-.256.238.238 0 0 0-.111-.08l-4.702-1.658a.247.247 0 0 0-.258.062.226.226 0 0 0-.048.078l-.893 2.372-.498 1.322a14.804 14.804 0 0 0-6.491-1.446c-2.251.015-4.467.54-6.47 1.534a14.275 14.275 0 0 0-5.062 4.185A13.673 13.673 0 0 0 1.8 19.062a2.33 2.33 0 0 0 .06 1.035c.097.337.269.65.503.916.272.31.62.549 1.012.696v1.202h-.186c-.911 0-1.55.284-1.9.846C1 24.223 1 24.765 1 25.088c0 1.19.65 1.956 1.765 2.116a3.4 3.4 0 0 0-.051.584 3.094 3.094 0 0 0 .843 2.143h-.376a1.602 1.602 0 0 0-1.108.447c-.294.285-.459.67-.46 1.073v.49c.002.81.335 1.588.929 2.162A3.225 3.225 0 0 0 4.779 35h22.45c.839 0 1.643-.324 2.236-.897a3.012 3.012 0 0 0 .928-2.163v-.49c0-.402-.166-.789-.46-1.074a1.602 1.602 0 0 0-1.112-.445ZM24.154 5.528l3.934 1.384-1.173.527a.238.238 0 0 0-.124.13.226.226 0 0 0 .007.177l.545 1.144-3.917-1.423.728-1.939Zm5.693 19.418c0 .7-.413 1.17-.798 1.17-.069 0-.137-.004-.205-.014a3.566 3.566 0 0 0-1.805-1.548.594.594 0 0 0-.217-.04c-1.303 0-1.803.508-2.204.917-.377.383-.675.685-1.84.685-1.014 0-1.69-.25-2.33-.555l1.5-1.53h7.1c.695 0 .799.573.799.915Zm-12.573-.264-.664-.65h3.74l-1.268 1.293-.005.004-.558.572-1.245-1.219ZM4.535 21.873H27.47v1.038H4.535v-1.038Zm-1.286-1.585a1.251 1.251 0 0 1-.304-1.046 12.575 12.575 0 0 1 2.384-5.486 13.131 13.131 0 0 1 4.692-3.85 13.607 13.607 0 0 1 5.987-1.383c2.08 0 4.13.475 5.986 1.384l-.97 2.577a.224.224 0 0 0 .063.248.24.24 0 0 0 .161.06.244.244 0 0 0 .137-.04.231.231 0 0 0 .087-.11l.947-2.517a13.153 13.153 0 0 1 4.395 3.825 12.624 12.624 0 0 1 2.245 5.289 1.25 1.25 0 0 1-.3 1.049c-.13.147-.29.265-.471.346-.181.08-.378.122-.578.122H4.294c-.199 0-.395-.042-.576-.123-.18-.08-.34-.198-.469-.345Zm-1.09 4.804c0-.614 0-1.058 1.03-1.058H14.98l.663.65c-.629.172-1.09.447-1.513.702-.654.396-1.218.733-2.395.733-1.227 0-1.714-.373-2.229-.767-.502-.385-1.071-.82-2.16-.82-1.212 0-2.044.542-2.713.978-.432.282-.806.527-1.201.593a1.26 1.26 0 0 1-.21.018c-.747-.006-1.064-.313-1.064-1.032v.003Zm1.713 2.702c0-.226.033-.45.1-.667.487-.149.905-.42 1.311-.686.62-.404 1.207-.786 2.066-.786.681 0 1 .242 1.44.578.586.449 1.317 1.008 2.948 1.008 1.507 0 2.304-.479 3.006-.901.554-.333 1.04-.623 1.887-.687l1.481 1.45a.576.576 0 0 0 .41.167h.005a.595.595 0 0 0 .415-.176l.67-.684c.797.401 1.715.829 3.16.829 1.665 0 2.229-.574 2.682-1.034.32-.325.537-.545 1.25-.567.533.237.96.65 1.204 1.166.148.31.224.647.223.988 0 .631-.263 1.01-.717 1.45-.227.22-.498.395-.795.515-.298.119-.617.18-.939.179H6.321c-1.419-.005-2.449-.907-2.449-2.148v.006Zm25.363 4.151a1.91 1.91 0 0 1-.588 1.37 2.044 2.044 0 0 1-1.418.57H4.777a2.044 2.044 0 0 1-1.419-.572 1.91 1.91 0 0 1-.586-1.373v-.49c0-.104.043-.206.12-.28a.42.42 0 0 1 .29-.12H28.82c.11 0 .215.043.292.118a.393.393 0 0 1 .122.283v.494Z"/>
    <path fill="currentColor" d="M6.107 14.62a.24.24 0 0 0-.173-.061.245.245 0 0 0-.168.076c-.73.777-1.764 3.054-2.045 4.516a.224.224 0 0 0 .038.173.24.24 0 0 0 .197.1c.056 0 .11-.02.153-.054a.228.228 0 0 0 .08-.136c.26-1.345 1.27-3.592 1.933-4.293a.226.226 0 0 0-.015-.32ZM10.732 32.972H4.853c-.637 0-1.099-.52-1.099-.872a.227.227 0 0 0-.07-.163.243.243 0 0 0-.337 0 .227.227 0 0 0-.07.163c0 .616.689 1.333 1.576 1.333h5.879a.243.243 0 0 0 .168-.068.227.227 0 0 0 0-.326.243.243 0 0 0-.168-.067Z"/>
</svg>
